pencil-box-multiple.svg

<svg fill="currentColor" viewBox="0 0 24 24"><path d="M20.22 2H7.78C6.8 2 6 2.8 6 3.78v12.44C6 17.2 6.8 18 7.78 18h12.44c.98 0 1.78-.79 1.78-1.78V3.78C22 2.8 21.2 2 20.22 2m-9.16 13H9v-2.06l6.06-6.06 2.06 2.06zm7.64-7.65-1 1-2.05-2.05 1-1c.21-.22.56-.22.77 0l1.28 1.28c.22.21.22.56 0 .77M4 6H2v14a2 2 0 0 0 2 2h14v-2H4z"/></svg>

<svg  viewBox="0 0 24 24" fill="currentColor"><path  d="M20.22 2H7.78C6.8 2 6 2.8 6 3.78V16.22C6 17.2 6.8 18 7.78 18H20.22C21.2 18 22 17.21 22 16.22V3.78C22 2.8 21.2 2 20.22 2M11.06 15H9V12.94L15.06 6.88L17.12 8.94L11.06 15M18.7 7.35L17.7 8.35L15.65 6.3L16.65 5.3C16.86 5.08 17.21 5.08 17.42 5.3L18.7 6.58C18.92 6.79 18.92 7.14 18.7 7.35M4 6H2V20C2 21.11 2.9 22 4 22H18V20H4V6Z"/></svg>
